cfmoto/public/img/icons/whats-app.svg

<svg width="36" height="36" viewBox="0 0 36 36" fill="none" xmlns="http://www.w3.org/2000/svg">
<path d="M24.9479 20.8284C24.5797 20.6392 22.7453 19.7406 22.4041 19.619C22.0629 19.4906 21.8129 19.4298 21.5662 19.8082C21.3163 20.1832 20.6068 21.0176 20.3838 21.271C20.1676 21.521 19.948 21.5514 19.5798 21.3656C17.3907 20.271 15.9549 19.4129 14.5124 16.9366C14.1306 16.2778 14.8941 16.3251 15.6069 14.9029C15.7286 14.6529 15.6677 14.4401 15.5732 14.2509C15.4786 14.0617 14.7353 12.2306 14.4245 11.484C14.1239 10.7577 13.8131 10.8591 13.5867 10.8455C13.3705 10.832 13.1239 10.832 12.8739 10.832C12.6239 10.832 12.2219 10.9266 11.8807 11.2949C11.5395 11.6698 10.5767 12.5719 10.5767 14.4029C10.5767 16.2339 11.9111 18.0075 12.0935 18.2575C12.2827 18.5075 14.7184 22.2642 18.4582 23.8824C20.823 24.9026 21.7487 24.9905 22.9311 24.8148C23.6507 24.7067 25.1337 23.9162 25.4411 23.0412C25.7486 22.1696 25.7486 21.423 25.6574 21.2676C25.5661 21.1021 25.3162 21.0075 24.9479 20.8284Z" fill="white"/>
<path d="M32.0998 11.9947C31.3363 10.1805 30.2417 8.55217 28.8465 7.15356C27.4512 5.75832 25.8229 4.66037 24.0054 3.90026C22.1473 3.11987 20.1744 2.72461 18.1406 2.72461H18.0731C16.0258 2.73474 14.0428 3.14014 12.1779 3.93742C10.3773 4.70767 8.76249 5.80224 7.38076 7.19747C5.99904 8.59271 4.91461 10.2143 4.16462 12.0217C3.38762 13.8933 2.99573 15.8831 3.00587 17.9303C3.016 20.2749 3.5768 22.6025 4.62745 24.6835V29.8185C4.62745 30.6766 5.32338 31.3726 6.18147 31.3726H11.3199C13.4009 32.4232 15.7285 32.984 18.0731 32.9941H18.144C20.1676 32.9941 22.1304 32.6023 23.9783 31.8354C25.7857 31.082 27.4107 30.001 28.8025 28.6192C30.1978 27.2375 31.2957 25.6227 32.0626 23.8221C32.8599 21.9572 33.2653 19.9742 33.2754 17.9269C33.2855 15.8696 32.8869 13.873 32.0998 11.9947ZM26.9951 26.7916C24.627 29.1361 21.4851 30.4266 18.1406 30.4266H18.0832C16.0461 30.4165 14.0225 29.9098 12.2354 28.9571L11.9516 28.8051H7.19496V24.0484L7.04293 23.7646C6.09025 21.9775 5.58351 19.9539 5.57337 17.9168C5.55986 14.5486 6.84699 11.3866 9.20842 9.00486C11.5665 6.62316 14.7184 5.30563 18.0866 5.29211H18.144C19.8332 5.29211 21.4716 5.61981 23.0155 6.26844C24.5222 6.90018 25.8736 7.80894 27.0357 8.97108C28.1944 10.1298 29.1066 11.4845 29.7383 12.9913C30.3937 14.552 30.7214 16.2074 30.7147 17.9168C30.6944 21.2816 29.3735 24.4335 26.9951 26.7916Z" fill="white"/>
</svg>

<svg width="36" height="36" fill="none" xmlns="http://www.w3.org/2000/svg"><path d="M24.948 20.828c-.368-.189-2.203-1.087-2.544-1.209-.341-.128-.591-.19-.838.19-.25.374-.96 1.209-1.182 1.462-.216.25-.436.28-.804.095-2.19-1.095-3.625-1.953-5.068-4.43-.381-.658.382-.61 1.095-2.033.122-.25.06-.463-.034-.652-.094-.19-.838-2.02-1.149-2.767-.3-.726-.61-.625-.837-.639-.216-.013-.463-.013-.713-.013-.25 0-.652.095-.993.463-.341.375-1.304 1.277-1.304 3.108 0 1.83 1.334 3.604 1.517 3.854.189.25 2.624 4.007 6.364 5.625 2.365 1.02 3.29 1.108 4.473.933.72-.108 2.203-.899 2.51-1.774.308-.871.308-1.618.216-1.773-.09-.166-.34-.26-.71-.44z" fill="#fff"/><path d="M32.1 11.995a15.14 15.14 0 00-3.254-4.841 15.012 15.012 0 00-4.84-3.254 15.063 15.063 0 00-5.865-1.175h-.068A15.1 15.1 0 007.381 7.197a14.998 14.998 0 00-3.216 4.825 15.14 15.14 0 00-1.16 5.908 15.2 15.2 0 001.622 6.753v5.136c0 .858.696 1.554 1.554 1.554h5.139a15.182 15.182 0 006.753 1.621h.071a15.14 15.14 0 005.834-1.159 15.015 15.015 0 004.824-3.216 15.099 15.099 0 004.473-10.692 15.079 15.079 0 00-1.175-5.932zm-5.105 14.797a12.5 12.5 0 01-8.854 3.635h-.058a12.61 12.61 0 01-5.848-1.47l-.283-.152H7.195v-4.757l-.152-.283a12.612 12.612 0 01-1.47-5.848c-.013-3.368 1.274-6.53 3.635-8.912a12.473 12.473 0 018.879-3.713h.057c1.69 0 3.328.328 4.872.976a12.487 12.487 0 014.02 2.703 12.504 12.504 0 012.702 4.02 12.52 12.52 0 01.977 4.926 12.52 12.52 0 01-3.72 8.875z" fill="#fff"/></svg>
